dist/img/icon/doha-tower.svg

<svg width="174" height="200" viewBox="0 0 174 200" fill="none" xmlns="http://www.w3.org/2000/svg">
<g clip-path="url(#clip0_67_14545)">
<path d="M144.926 116.26H54.106V165.535H144.926V116.26Z" fill="#00AEEF"/>
<path d="M81.1587 148.144H10.6279V165.535H81.1587V148.144Z" fill="#D0ECF6"/>
<mask id="mask0_67_14545" style="mask-type:luminance" maskUnits="userSpaceOnUse" x="92" y="26" width="18" height="45">
<path fill-rule="evenodd" clip-rule="evenodd" d="M97.6871 38.966L92.3472 45.2216L92.634 70.2817L109.261 63.4308L108.425 26.3906L106.762 28.338H95.6514V38.966H97.6871Z" fill="black"/>
</mask>
<g mask="url(#mask0_67_14545)">
<path fill-rule="evenodd" clip-rule="evenodd" d="M97.6871 38.966L92.3472 45.2216L92.634 70.2817L109.261 63.4308L108.425 26.3906L106.762 28.338H95.6514V38.966H97.6871Z" fill="#D0ECF6"/>
</g>
<path d="M54.0766 167.67C53.7771 167.67 53.4872 167.544 53.2747 167.341C53.0621 167.129 52.9365 166.839 52.9365 166.539V115.661C52.9365 115.361 53.0621 115.071 53.2747 114.859C53.4872 114.656 53.7771 114.53 54.0766 114.53H144.472C144.771 114.53 145.061 114.656 145.274 114.868C145.486 115.071 145.602 115.361 145.602 115.661V166.539C145.602 166.839 145.486 167.129 145.274 167.341C145.061 167.544 144.771 167.67 144.472 167.67H54.0766ZM55.207 165.409H143.341V116.801H55.207V165.409Z" fill="#3271B2"/>
<path d="M90.5308 70.956L90.5404 47.2847C90.5694 45.9514 91.6612 39.0529 108.057 30.0868C108.405 29.8936 108.83 29.9033 109.178 30.1062C109.526 30.3091 109.729 30.6762 109.729 31.082V64.1542C109.729 64.7822 109.226 65.2942 108.598 65.2942C107.97 65.2942 107.468 64.7822 107.468 64.1542V33.0143C93.0718 41.3331 92.8109 47.1012 92.8013 47.3137V70.956C92.8013 71.5744 92.2892 72.0864 91.6708 72.0864C91.0428 72.0864 90.5308 71.5744 90.5308 70.956Z" fill="#3271B2"/>
<path d="M82.5015 101.767V78.5501C82.5208 76.4148 83.9314 74.7047 85.7961 73.1975C87.6995 71.6999 90.1922 70.3472 92.9072 69.1009C98.3177 66.6178 104.588 64.5695 108.173 63.1106C113.941 60.7241 114.269 57.1879 114.356 56.2604C114.385 55.6421 114.897 55.159 115.516 55.1783C116.124 55.188 116.617 55.6904 116.617 56.3087V96.1924C116.617 96.8204 116.115 97.3228 115.487 97.3228C114.859 97.3228 114.356 96.8204 114.356 96.1924V61.6034C113.216 62.9173 111.525 64.212 109.023 65.2072C106.231 66.3376 102.057 67.7579 97.9119 69.4197C93.7767 71.0815 89.6801 73.0042 87.2164 74.9752C85.5352 76.2989 84.7333 77.5646 84.7623 78.5501V101.767C84.7623 102.395 84.2599 102.898 83.6319 102.898C83.0039 102.898 82.5015 102.395 82.5015 101.767Z" fill="#3271B2"/>
<path d="M67.5644 116.801C67.2649 116.801 66.975 116.675 66.7625 116.463C66.5499 116.25 66.4243 115.96 66.4243 115.671V108.666C66.4243 107.98 66.7142 107.371 67.1006 106.888C67.4968 106.395 67.9992 105.98 68.5885 105.593C69.7769 104.811 71.3615 104.115 73.2648 103.439C77.0716 102.106 82.1343 100.878 87.4869 99.7867C98.1728 97.6032 109.97 95.9703 114.463 95.236C117.293 94.7626 118.907 93.8544 119.854 92.9172C120.801 91.9897 121.129 91.0042 121.255 90.2119C121.351 89.6322 121.873 89.2168 122.462 89.2554C123.052 89.3037 123.516 89.7965 123.516 90.3858V115.671C123.516 115.96 123.39 116.25 123.177 116.463C122.965 116.675 122.675 116.801 122.375 116.801H67.5644ZM76.1923 104.859C72.3663 105.999 69.5161 107.391 68.8784 108.289C68.7045 108.511 68.6948 108.618 68.6948 108.666V114.531H121.245V94.724C119.892 95.9607 117.844 96.9752 114.83 97.4679C108.443 98.5114 87.7574 101.323 76.1923 104.859Z" fill="#3271B2"/>
<path d="M114.356 56.3668C114.24 56.2798 113.883 56.1059 113.467 55.9996C112.627 55.7967 111.429 55.7291 110.453 55.7291C109.448 55.7291 108.694 55.7967 108.694 55.7967C108.066 55.8451 107.525 55.3813 107.477 54.7629C107.419 54.1349 107.883 53.5939 108.511 53.5359C108.53 53.5359 109.351 53.4683 110.453 53.4683C111.255 53.4683 112.202 53.4972 113.11 53.6325C114.018 53.7774 114.897 53.9707 115.661 54.5117C116.153 54.8596 116.636 55.5262 116.617 56.3088C116.617 56.9368 116.115 57.4392 115.487 57.4392C114.878 57.4392 114.385 56.9658 114.356 56.3668Z" fill="#3271B2"/>
<path d="M121.245 90.4434C121.129 90.3565 120.772 90.1826 120.356 90.086C119.516 89.8734 118.318 89.8058 117.342 89.8058C116.337 89.8058 115.584 89.8734 115.584 89.8734C114.965 89.9217 114.414 89.4579 114.356 88.8396C114.308 88.2116 114.772 87.6705 115.39 87.6126C115.41 87.6126 116.241 87.5449 117.342 87.5449C118.144 87.5449 119.091 87.5739 119.999 87.7092C120.907 87.8541 121.786 88.0473 122.55 88.5884C123.052 88.9362 123.525 89.6125 123.506 90.3855C123.506 91.0135 123.004 91.5159 122.376 91.5159C121.777 91.5159 121.274 91.0425 121.245 90.4434Z" fill="#3271B2"/>
<path d="M93.3423 41.7098V27.5167C93.3423 27.2171 93.4582 26.9273 93.6708 26.7147C93.8833 26.5118 94.1732 26.3862 94.4727 26.3862H107.381C107.68 26.3862 107.97 26.5118 108.183 26.7147C108.386 26.9273 108.511 27.2171 108.511 27.5167V31.7582C108.511 32.3862 108.009 32.8886 107.381 32.8886C106.753 32.8886 106.25 32.3862 106.25 31.7582V28.6471H95.6031V41.7098C95.6031 42.3378 95.0911 42.8498 94.4727 42.8498C93.8447 42.8498 93.3423 42.3378 93.3423 41.7098Z" fill="#3271B2"/>
<path d="M94.5113 18.9948C94.2118 18.9948 93.9219 18.8692 93.719 18.6663C93.5065 18.4538 93.3809 18.1639 93.3809 17.8644C93.3809 15.0915 94.1538 12.5698 95.4678 10.6761C96.7721 8.78236 98.7141 7.47803 100.956 7.47803V8.60845V9.73888C99.6417 9.73888 98.3567 10.5022 97.3325 11.9707C96.4823 13.1785 95.8736 14.8499 95.6997 16.734H106.202C106.028 14.8499 105.419 13.1785 104.579 11.9707C103.555 10.5022 102.27 9.73888 100.956 9.73888V8.60845V7.47803C103.197 7.47803 105.13 8.78236 106.434 10.6761C107.748 12.5698 108.521 15.0915 108.521 17.8644C108.521 18.1639 108.405 18.4538 108.192 18.6663C107.98 18.8692 107.69 18.9948 107.39 18.9948H94.5113Z" fill="#3271B2"/>
<path d="M92.4244 18.9952C91.7964 18.9952 91.2939 18.4832 91.2939 17.8648C91.2939 17.2368 91.7964 16.7344 92.4244 16.7344H109.487C110.105 16.7344 110.617 17.2368 110.617 17.8648C110.617 18.4832 110.105 18.9952 109.487 18.9952H92.4244Z" fill="#3271B2"/>
<path d="M99.8154 8.60861V1.13042C99.8154 0.502411 100.328 0 100.956 0C101.574 0 102.086 0.502411 102.086 1.13042V8.60861C102.086 9.23663 101.574 9.73904 100.956 9.73904C100.328 9.73904 99.8154 9.23663 99.8154 8.60861Z" fill="#3271B2"/>
<path d="M93.3906 27.5169V17.8648C93.3906 17.2368 93.893 16.7344 94.521 16.7344C95.1394 16.7344 95.6515 17.2368 95.6515 17.8648V27.5169C95.6515 28.1449 95.1394 28.6473 94.521 28.6473C93.893 28.6473 93.3906 28.1449 93.3906 27.5169Z" fill="#3271B2"/>
<path d="M106.26 27.5169V17.8648C106.26 17.2368 106.762 16.7344 107.39 16.7344C108.018 16.7344 108.521 17.2368 108.521 17.8648V27.5169C108.521 28.1449 108.018 28.6473 107.39 28.6473C106.762 28.6473 106.26 28.1449 106.26 27.5169Z" fill="#3271B2"/>
<path d="M101.97 27.5169V17.8648C101.97 17.2368 102.473 16.7344 103.101 16.7344C103.729 16.7344 104.231 17.2368 104.231 17.8648V27.5169C104.231 28.1449 103.729 28.6473 103.101 28.6473C102.473 28.6473 101.97 28.1449 101.97 27.5169Z" fill="#3271B2"/>
<path d="M97.6802 27.5169V17.8648C97.6802 17.2368 98.1826 16.7344 98.8106 16.7344C99.4386 16.7344 99.941 17.2368 99.941 17.8648V27.5169C99.941 28.1449 99.4386 28.6473 98.8106 28.6473C98.1826 28.6473 97.6802 28.1449 97.6802 27.5169Z" fill="#3271B2"/>
<path d="M100.231 88.6849V74.3276C100.231 73.6996 100.733 73.1875 101.361 73.1875C101.989 73.1875 102.492 73.6996 102.492 74.3276V88.6849C102.492 89.313 101.989 89.825 101.361 89.825C100.733 89.825 100.231 89.313 100.231 88.6849Z" fill="#3271B2"/>
<path d="M104.163 115.661V104.907C104.163 104.279 104.675 103.777 105.303 103.777C105.922 103.777 106.434 104.279 106.434 104.907V115.661C106.434 116.289 105.922 116.791 105.303 116.791C104.675 116.791 104.163 116.289 104.163 115.661Z" fill="#3271B2"/>
<path d="M75.207 115.661V108.153C75.207 107.525 75.7094 107.023 76.3375 107.023C76.9655 107.023 77.4679 107.525 77.4679 108.153V115.661C77.4679 116.289 76.9655 116.801 76.3375 116.801C75.7094 116.801 75.207 116.289 75.207 115.661Z" fill="#3271B2"/>
<path d="M12.1543 199.998C11.536 199.998 11.0239 199.486 11.0239 198.858C11.0239 198.24 11.536 197.728 12.1543 197.728H135.351C135.979 197.728 136.482 198.24 136.482 198.858C136.482 199.486 135.979 199.998 135.351 199.998H12.1543Z" fill="#3271B2"/>
<path d="M134.221 198.858C134.221 198.24 134.723 197.728 135.351 197.728H170.781V167.67H1.13042C0.502411 167.67 0 167.168 0 166.54C0 165.912 0.502411 165.409 1.13042 165.409H171.911C172.211 165.409 172.501 165.525 172.713 165.738C172.926 165.95 173.042 166.24 173.042 166.54V198.858C173.042 199.158 172.926 199.448 172.713 199.66C172.501 199.873 172.211 199.998 171.911 199.998H135.351C134.723 199.998 134.221 199.486 134.221 198.858Z" fill="#3271B2"/>
<path d="M10.6567 167.67C10.3475 167.67 10.0673 167.554 9.85476 167.341C9.6422 167.119 9.5166 166.839 9.5166 166.54V148.462C9.5166 148.163 9.6422 147.883 9.85476 147.67C10.0577 147.458 10.3572 147.332 10.6567 147.332H80.1633C80.4628 147.332 80.743 147.448 80.9652 147.67C81.1778 147.883 81.2937 148.163 81.2937 148.462V166.54C81.2937 166.839 81.1778 167.119 80.9652 167.341C80.743 167.554 80.4628 167.67 80.1633 167.67H10.6567ZM11.7871 165.409H79.0329V149.593H11.7871V165.409Z" fill="#3271B2"/>
<path d="M160.356 191.911V176.964C160.356 176.346 160.858 175.834 161.486 175.834C162.114 175.834 162.617 176.346 162.617 176.964V191.911C162.617 192.539 162.114 193.042 161.486 193.042C160.858 193.042 160.356 192.539 160.356 191.911Z" fill="#3271B2"/>
<path d="M134.791 191.911V176.964C134.791 176.336 135.293 175.834 135.921 175.834C136.549 175.834 137.052 176.336 137.052 176.964V191.911C137.052 192.529 136.549 193.042 135.921 193.042C135.293 193.042 134.791 192.529 134.791 191.911Z" fill="#3271B2"/>
<path d="M147.573 191.911V176.964C147.573 176.336 148.076 175.834 148.704 175.834C149.332 175.834 149.834 176.336 149.834 176.964V191.911C149.834 192.539 149.332 193.042 148.704 193.042C148.076 193.042 147.573 192.539 147.573 191.911Z" fill="#3271B2"/>
<path d="M122.008 191.911V176.964C122.008 176.336 122.52 175.834 123.139 175.834C123.767 175.834 124.269 176.336 124.269 176.964V191.911C124.269 192.529 123.767 193.042 123.139 193.042C122.52 193.042 122.008 192.529 122.008 191.911Z" fill="#3271B2"/>
<path d="M96.4434 191.911V176.964C96.4434 176.336 96.9554 175.834 97.5834 175.834C98.2018 175.834 98.7139 176.336 98.7139 176.964V191.911C98.7139 192.529 98.2018 193.042 97.5834 193.042C96.9554 193.042 96.4434 192.529 96.4434 191.911Z" fill="#3271B2"/>
<path d="M109.226 191.911V176.964C109.226 176.336 109.738 175.834 110.356 175.834C110.985 175.834 111.497 176.336 111.497 176.964V191.911C111.497 192.529 110.985 193.042 110.356 193.042C109.738 193.042 109.226 192.529 109.226 191.911Z" fill="#3271B2"/>
<path d="M83.6611 191.911V176.964C83.6611 176.336 84.1732 175.834 84.7916 175.834C85.4196 175.834 85.9316 176.336 85.9316 176.964V191.911C85.9316 192.539 85.4196 193.042 84.7916 193.042C84.1732 193.042 83.6611 192.539 83.6611 191.911Z" fill="#3271B2"/>
<path d="M58.0962 191.911V176.964C58.0962 176.336 58.6083 175.834 59.2363 175.834C59.8546 175.834 60.3667 176.336 60.3667 176.964V191.911C60.3667 192.539 59.8546 193.042 59.2363 193.042C58.6083 193.042 58.0962 192.539 58.0962 191.911Z" fill="#3271B2"/>
<path d="M45.3232 191.911V176.964C45.3232 176.336 45.8257 175.834 46.4537 175.834C47.072 175.834 47.5841 176.336 47.5841 176.964V191.911C47.5841 192.529 47.072 193.042 46.4537 193.042C45.8257 193.042 45.3232 192.529 45.3232 191.911Z" fill="#3271B2"/>
<path d="M70.8784 191.911V176.964C70.8784 176.346 71.3905 175.834 72.0088 175.834C72.6369 175.834 73.1489 176.346 73.1489 176.964V191.911C73.1489 192.539 72.6369 193.042 72.0088 193.042C71.3905 193.042 70.8784 192.539 70.8784 191.911Z" fill="#3271B2"/>
<path d="M23.5361 191.911V176.964C23.5361 176.336 24.0482 175.834 24.6666 175.834C25.2946 175.834 25.8066 176.336 25.8066 176.964V191.911C25.8066 192.529 25.2946 193.042 24.6666 193.042C24.0482 193.042 23.5361 192.529 23.5361 191.911Z" fill="#3271B2"/>
<path d="M10.7632 191.911V176.964C10.7632 176.336 11.2656 175.834 11.8936 175.834C12.5216 175.834 13.024 176.336 13.024 176.964V191.911C13.024 192.529 12.5216 193.042 11.8936 193.042C11.2656 193.042 10.7632 192.529 10.7632 191.911Z" fill="#3271B2"/>
<path d="M124.395 159.448V133.902C124.395 133.274 124.907 132.771 125.525 132.771C126.153 132.771 126.666 133.274 126.666 133.902V159.448C126.666 160.076 126.153 160.588 125.525 160.588C124.907 160.588 124.395 160.076 124.395 159.448Z" fill="#3271B2"/>
<path d="M133.525 159.448V133.902C133.525 133.274 134.028 132.771 134.656 132.771C135.284 132.771 135.786 133.274 135.786 133.902V159.448C135.786 160.076 135.284 160.588 134.656 160.588C134.028 160.588 133.525 160.076 133.525 159.448Z" fill="#3271B2"/>
<path d="M33.8936 198.858V166.539C33.8936 166.23 34.1544 165.969 34.4636 165.969C34.7728 165.969 35.0336 166.23 35.0336 166.539V198.858C35.0336 199.177 34.7728 199.428 34.4636 199.428C34.1544 199.428 33.8936 199.177 33.8936 198.858Z" fill="#3271B2"/>
<path d="M26.7822 166.539V148.472C26.7822 148.153 27.0334 147.902 27.3426 147.902C27.6518 147.902 27.9127 148.153 27.9127 148.472V166.539C27.9127 166.849 27.6518 167.109 27.3426 167.109C27.0334 167.109 26.7822 166.849 26.7822 166.539Z" fill="#3271B2"/>
</g>
<defs>
<clipPath id="clip0_67_14545">
<rect width="173.05" height="200" fill="white"/>
</clipPath>
</defs>
</svg>

<svg width="174" height="200" viewBox="0 0 174 200" fill="none" xmlns="http://www.w3.org/2000/svg"><g clip-path="url(#clip0_67_14545)"><path d="M144.926 116.26h-90.82v49.275h90.82V116.26z" fill="#00AEEF"/><path d="M81.159 148.144H10.628v17.391h70.53v-17.391z" fill="#D0ECF6"/><mask id="a" style="mask-type:luminance" maskUnits="userSpaceOnUse" x="92" y="26" width="18" height="45"><path fill-rule="evenodd" clip-rule="evenodd" d="M97.687 38.966l-5.34 6.256.287 25.06 16.627-6.851-.836-37.04-1.663 1.947h-11.11v10.628h2.035z" fill="#000"/></mask><g mask="url(#a)"><path fill-rule="evenodd" clip-rule="evenodd" d="M97.687 38.966l-5.34 6.256.287 25.06 16.627-6.851-.836-37.04-1.663 1.947h-11.11v10.628h2.035z" fill="#D0ECF6"/></g><path d="M54.077 167.67c-.3 0-.59-.126-.802-.329a1.14 1.14 0 01-.338-.802v-50.878c0-.3.125-.59.338-.802.212-.203.502-.329.802-.329h90.395c.299 0 .589.126.802.338.212.203.328.493.328.793v50.878c0 .3-.116.59-.328.802a1.178 1.178 0 01-.802.329H54.077zm1.13-2.261h88.134v-48.608H55.207v48.608zM90.53 70.956l.01-23.671c.03-1.334 1.121-8.232 17.517-17.198a1.132 1.132 0 011.121.02c.348.202.551.57.551.975v33.072c0 .628-.503 1.14-1.131 1.14s-1.13-.512-1.13-1.14v-31.14c-14.396 8.32-14.657 14.087-14.667 14.3v23.642c0 .618-.512 1.13-1.13 1.13a1.14 1.14 0 01-1.14-1.13z" fill="#3271B2"/><path d="M82.501 101.767V78.55c.02-2.135 1.43-3.845 3.295-5.352 1.903-1.498 4.396-2.85 7.111-4.097 5.41-2.483 11.681-4.531 15.266-5.99 5.768-2.387 6.096-5.923 6.183-6.85a1.129 1.129 0 011.16-1.083c.608.01 1.101.512 1.101 1.13v39.884c0 .628-.502 1.13-1.13 1.13a1.126 1.126 0 01-1.131-1.13V61.603c-1.14 1.314-2.831 2.609-5.333 3.604-2.792 1.13-6.966 2.55-11.111 4.213-4.135 1.662-8.232 3.584-10.696 5.555-1.68 1.324-2.483 2.59-2.454 3.575v23.217c0 .628-.502 1.131-1.13 1.131-.628 0-1.13-.503-1.13-1.131z" fill="#3271B2"/><path d="M67.564 116.801c-.3 0-.589-.126-.801-.338a1.14 1.14 0 01-.339-.792v-7.005c0-.686.29-1.295.677-1.778.396-.493.898-.908 1.487-1.295 1.189-.782 2.774-1.478 4.677-2.154 3.807-1.333 8.87-2.561 14.222-3.652 10.686-2.184 22.483-3.817 26.976-4.551 2.83-.473 4.444-1.382 5.391-2.319a4.698 4.698 0 001.401-2.705c.096-.58.618-.995 1.207-.957.59.049 1.054.541 1.054 1.13v25.286c0 .289-.126.579-.339.792a1.143 1.143 0 01-.802.338h-54.81zm8.628-11.942c-3.826 1.14-6.676 2.532-7.314 3.43-.174.222-.183.329-.183.377v5.865h52.55V94.724c-1.353 1.237-3.401 2.251-6.415 2.744-6.387 1.043-27.073 3.855-38.638 7.391zm38.164-48.492c-.116-.087-.473-.261-.889-.367-.84-.203-2.038-.27-3.014-.27-1.005 0-1.759.067-1.759.067a1.127 1.127 0 01-1.217-1.034 1.13 1.13 0 011.034-1.227c.019 0 .84-.068 1.942-.068.802 0 1.749.03 2.657.164.908.145 1.787.339 2.551.88.492.348.975 1.014.956 1.797 0 .628-.502 1.13-1.13 1.13a1.128 1.128 0 01-1.131-1.072z" fill="#3271B2"/><path d="M121.245 90.443c-.116-.087-.473-.26-.889-.357-.84-.213-2.038-.28-3.014-.28-1.005 0-1.758.067-1.758.067a1.15 1.15 0 01-1.228-1.033 1.143 1.143 0 011.034-1.227c.02 0 .851-.068 1.952-.068.802 0 1.749.029 2.657.164.908.145 1.787.338 2.551.88.502.347.975 1.023.956 1.796 0 .628-.502 1.13-1.13 1.13a1.134 1.134 0 01-1.131-1.072zM93.342 41.71V27.517c0-.3.116-.59.329-.802.212-.203.502-.329.802-.329h12.908c.299 0 .589.126.802.329.203.212.328.502.328.802v4.241c0 .628-.502 1.13-1.13 1.13a1.126 1.126 0 01-1.131-1.13v-3.11H95.603V41.71a1.14 1.14 0 01-1.13 1.14c-.628 0-1.13-.512-1.13-1.14zm1.169-22.715a1.135 1.135 0 01-1.13-1.13c0-2.773.773-5.295 2.087-7.189 1.304-1.894 3.246-3.198 5.488-3.198v2.26c-1.314 0-2.6.764-3.624 2.233-.85 1.207-1.458 2.879-1.632 4.763h10.502c-.174-1.884-.783-3.556-1.623-4.763-1.024-1.469-2.309-2.232-3.623-2.232V7.478c2.241 0 4.174 1.304 5.478 3.198 1.314 1.894 2.087 4.415 2.087 7.188 0 .3-.116.59-.329.802a1.174 1.174 0 01-.802.329H94.511z" fill="#3271B2"/><path d="M92.424 18.995c-.628 0-1.13-.512-1.13-1.13 0-.628.502-1.13 1.13-1.13h17.063c.618 0 1.13.502 1.13 1.13 0 .618-.512 1.13-1.13 1.13H92.424zm7.391-10.386V1.13c0-.628.513-1.13 1.141-1.13.618 0 1.13.502 1.13 1.13v7.48c0 .628-.512 1.13-1.13 1.13-.628 0-1.14-.502-1.14-1.13z" fill="#3271B2"/><path d="M93.39 27.517v-9.652a1.132 1.132 0 012.26 0v9.652a1.13 1.13 0 11-2.259 0zm12.87 0v-9.652c0-.628.502-1.13 1.13-1.13.628 0 1.131.502 1.131 1.13v9.652c0 .628-.503 1.13-1.131 1.13s-1.13-.502-1.13-1.13zm-4.29 0v-9.652c0-.628.503-1.13 1.131-1.13s1.13.502 1.13 1.13v9.652c0 .628-.502 1.13-1.13 1.13a1.126 1.126 0 01-1.131-1.13zm-4.29 0v-9.652c0-.628.503-1.13 1.13-1.13.629 0 1.131.502 1.131 1.13v9.652c0 .628-.502 1.13-1.13 1.13-.628 0-1.13-.502-1.13-1.13zm2.551 61.168V74.328c0-.628.502-1.14 1.13-1.14.628 0 1.131.512 1.131 1.14v14.357c0 .628-.503 1.14-1.131 1.14s-1.13-.512-1.13-1.14zm3.932 26.976v-10.754c0-.628.512-1.13 1.14-1.13.619 0 1.131.502 1.131 1.13v10.754c0 .628-.512 1.13-1.131 1.13-.628 0-1.14-.502-1.14-1.13zm-28.956 0v-7.508c0-.628.502-1.13 1.13-1.13.629 0 1.13.502 1.13 1.13v7.508c0 .628-.501 1.14-1.13 1.14-.628 0-1.13-.512-1.13-1.14zm-63.053 84.337a1.14 1.14 0 01-1.13-1.14c0-.618.512-1.13 1.13-1.13h123.197a1.134 1.134 0 010 2.27H12.154z" fill="#3271B2"/><path d="M134.221 198.858c0-.618.502-1.13 1.13-1.13h35.43V167.67H1.131A1.125 1.125 0 010 166.54c0-.628.502-1.131 1.13-1.131h170.781c.3 0 .59.116.802.329.213.212.329.502.329.802v32.318a1.139 1.139 0 01-1.131 1.14h-36.56c-.628 0-1.13-.512-1.13-1.14z" fill="#3271B2"/><path d="M10.657 167.67c-.31 0-.59-.116-.802-.329a1.158 1.158 0 01-.338-.801v-18.078c0-.299.125-.579.338-.792.203-.212.502-.338.802-.338h69.506c.3 0 .58.116.802.338.213.213.329.493.329.792v18.078c0 .299-.116.579-.329.801a1.149 1.149 0 01-.802.329H10.657zm1.13-2.261h67.246v-15.816H11.787v15.816zm148.569 26.502v-14.947a1.131 1.131 0 012.261 0v14.947c0 .628-.503 1.131-1.131 1.131s-1.13-.503-1.13-1.131zm-25.565 0v-14.947c0-.628.502-1.13 1.13-1.13.628 0 1.131.502 1.131 1.13v14.947c0 .618-.503 1.131-1.131 1.131s-1.13-.513-1.13-1.131zm12.782 0v-14.947c0-.628.503-1.13 1.131-1.13s1.13.502 1.13 1.13v14.947c0 .628-.502 1.131-1.13 1.131a1.127 1.127 0 01-1.131-1.131zm-25.565 0v-14.947a1.132 1.132 0 012.261 0v14.947c0 .618-.502 1.131-1.13 1.131a1.139 1.139 0 01-1.131-1.131zm-25.565 0v-14.947c0-.628.512-1.13 1.14-1.13.619 0 1.13.502 1.13 1.13v14.947c0 .618-.511 1.131-1.13 1.131a1.14 1.14 0 01-1.14-1.131zm12.783 0v-14.947c0-.628.512-1.13 1.13-1.13.629 0 1.141.502 1.141 1.13v14.947c0 .618-.512 1.131-1.141 1.131-.618 0-1.13-.513-1.13-1.131zm-25.565 0v-14.947c0-.628.512-1.13 1.13-1.13.629 0 1.14.502 1.14 1.13v14.947c0 .628-.511 1.131-1.14 1.131-.618 0-1.13-.503-1.13-1.131zm-25.565 0v-14.947c0-.628.512-1.13 1.14-1.13.619 0 1.13.502 1.13 1.13v14.947a1.134 1.134 0 01-2.27 0zm-12.773 0v-14.947a1.132 1.132 0 012.261 0v14.947c0 .618-.512 1.131-1.13 1.131-.628 0-1.13-.513-1.13-1.131zm25.555 0v-14.947c0-.618.513-1.13 1.13-1.13.629 0 1.14.512 1.14 1.13v14.947c0 .628-.511 1.131-1.14 1.131-.617 0-1.13-.503-1.13-1.131zm-47.342 0v-14.947c0-.628.512-1.13 1.13-1.13.629 0 1.14.502 1.14 1.13v14.947a1.14 1.14 0 01-1.14 1.131c-.618 0-1.13-.513-1.13-1.131zm-12.773 0v-14.947c0-.628.503-1.13 1.13-1.13.629 0 1.131.502 1.131 1.13v14.947c0 .618-.502 1.131-1.13 1.131-.628 0-1.13-.513-1.13-1.131zm113.632-32.463v-25.546a1.135 1.135 0 012.271 0v25.546c0 .628-.513 1.14-1.141 1.14a1.14 1.14 0 01-1.13-1.14zm9.13 0v-25.546c0-.628.503-1.131 1.131-1.131s1.13.503 1.13 1.131v25.546c0 .628-.502 1.14-1.13 1.14a1.134 1.134 0 01-1.131-1.14z" fill="#3271B2"/><path d="M33.894 198.858v-32.319c0-.309.26-.57.57-.57.309 0 .57.261.57.57v32.319a.57.57 0 01-1.14 0zm-7.112-32.319v-18.067c0-.319.251-.57.56-.57.31 0 .57.251.57.57v18.067c0 .31-.26.57-.57.57a.568.568 0 01-.56-.57z" fill="#3271B2"/></g><defs><clipPath id="clip0_67_14545"><rect width="173.05" height="200" fill="#fff"/></clipPath></defs></svg>
